packages/foundations/assets/icons/functional/images/transportation/handcart.svg

<svg xmlns="http://www.w3.org/2000/svg" width="32" height="32" fill="none"><path fill="#1A1C1F" fill-rule="evenodd" d="M24.557 4.605c-.542.248-.719 1.029-.337 1.493.207.251.408.354.8.41q.532.075.721.44c.055.107.452 2.609 1.109 6.983l1.022 6.817-.189.05c-.104.028-.823.208-1.596.401s-1.47.385-1.547.425a1.09 1.09 0 0 0-.539.894c.003.416.34.838.761.954.209.057.371.026 2.331-.457 1.159-.286 2.211-.568 2.337-.627.242-.113.457-.38.541-.672.037-.13-.207-1.869-1.068-7.595-.614-4.084-1.152-7.535-1.197-7.669-.238-.716-.785-1.321-1.509-1.669-.406-.195-.488-.215-.96-.233-.365-.014-.565.002-.68.055M2.531 12.633c-.228.139-.437.403-.5.63-.135.487.21 1.066.716 1.202l.24.064v1.511c0 1.745.046 2.081.378 2.773.375.782 1.161 1.424 1.968 1.609.159.037 2.913.056 8.162.057 8.599.001 8.193.014 8.789-.288.67-.339 1.223-.974 1.513-1.738L23.97 18l.019-1.737.019-1.736.244-.066c.319-.085.623-.386.709-.703a.985.985 0 0 0-.483-1.119c-.204-.104-.353-.106-10.996-.105-10.414 0-10.794.003-10.951.099m19.442 3.449c0 1.555-.001 1.578-.127 1.826-.151.298-.261.406-.526.517-.174.072-1.077.082-7.792.082H5.932l-.285-.149a1.04 1.04 0 0 1-.446-.409l-.161-.26-.016-1.591-.015-1.591h16.964zm-15.501 5.47c-.602.1-1.202.43-1.649.907-.505.538-.756 1.118-.806 1.861-.095 1.4.803 2.654 2.199 3.073.486.145 1.225.124 1.724-.05.929-.324 1.615-1.018 1.905-1.93a2.98 2.98 0 0 0-.728-3.019 3.01 3.01 0 0 0-2.645-.842m13.035-.007c-.421.076-.763.21-1.109.434a3 3 0 0 0-1.063 3.892c.191.377.68.914 1.048 1.15.975.625 2.295.62 3.249-.013.622-.413 1.152-1.181 1.296-1.877a2.992 2.992 0 0 0-2.757-3.607 3.5 3.5 0 0 0-.664.021m-6.422.541c-.603.056-1.332.339-1.725.669-.201.169-.371.506-.372.738-.001.295.232.696.492.849.349.204.686.19 1.162-.05.629-.317 1.176-.3 1.846.056.832.443 1.709-.25 1.458-1.153-.148-.533-1.168-1.058-2.186-1.124a5 5 0 0 0-.675.015m-5.616 1.542c.116.059.277.207.358.329.199.302.205.775.014 1.063-.286.429-.783.581-1.239.379-.437-.193-.65-.639-.553-1.157.043-.226.31-.549.537-.648.242-.105.64-.09.883.034m13.083.054a.98.98 0 0 1 .423.82c0 .564-.42.991-.975.991-.77 0-1.231-.834-.836-1.509q.287-.49.898-.451c.208.014.36.06.49.149"/></svg>

<svg width="32" height="32" viewBox="0 0 32 32" fill="none" xmlns="http://www.w3.org/2000/svg"><path d="M24.557 4.605 C 24.015 4.853,23.838 5.634,24.220 6.098 C 24.427 6.349,24.628 6.452,25.020 6.508 C 25.374 6.558,25.615 6.705,25.741 6.948 C 25.796 7.055,26.193 9.557,26.850 13.931 L 27.872 20.748 27.683 20.798 C 27.579 20.826,26.860 21.006,26.087 21.199 C 25.313 21.393,24.617 21.584,24.540 21.624 C 24.237 21.781,23.999 22.176,24.001 22.518 C 24.004 22.934,24.341 23.356,24.762 23.472 C 24.971 23.529,25.133 23.498,27.093 23.015 C 28.252 22.729,29.304 22.447,29.430 22.388 C 29.672 22.275,29.887 22.008,29.971 21.716 C 30.008 21.586,29.764 19.847,28.903 14.121 C 28.289 10.037,27.751 6.586,27.706 6.452 C 27.468 5.736,26.921 5.131,26.197 4.783 C 25.791 4.588,25.709 4.568,25.237 4.550 C 24.872 4.536,24.672 4.552,24.557 4.605 M2.531 12.633 C 2.303 12.772,2.094 13.036,2.031 13.263 C 1.896 13.750,2.241 14.329,2.747 14.465 L 2.987 14.529 2.987 16.040 C 2.987 17.785,3.033 18.121,3.365 18.813 C 3.740 19.595,4.526 20.237,5.333 20.422 C 5.492 20.459,8.246 20.478,13.495 20.479 C 22.094 20.480,21.688 20.493,22.284 20.191 C 22.954 19.852,23.507 19.217,23.797 18.453 L 23.970 18.000 23.989 16.263 L 24.008 14.527 24.252 14.461 C 24.571 14.376,24.875 14.075,24.961 13.758 C 25.080 13.323,24.871 12.840,24.478 12.639 C 24.274 12.535,24.125 12.533,13.482 12.534 C 3.068 12.534,2.688 12.537,2.531 12.633 M21.973 16.082 C 21.973 17.637,21.972 17.660,21.846 17.908 C 21.695 18.206,21.585 18.314,21.320 18.425 C 21.146 18.497,20.243 18.507,13.528 18.507 L 5.932 18.507 5.647 18.358 C 5.439 18.249,5.318 18.138,5.201 17.949 L 5.040 17.689 5.024 16.098 L 5.009 14.507 13.491 14.507 L 21.973 14.507 21.973 16.082 M6.472 21.552 C 5.870 21.652,5.270 21.982,4.823 22.459 C 4.318 22.997,4.067 23.577,4.017 24.320 C 3.922 25.720,4.820 26.974,6.216 27.393 C 6.702 27.538,7.441 27.517,7.940 27.343 C 8.869 27.019,9.555 26.325,9.845 25.413 C 10.186 24.340,9.908 23.187,9.117 22.394 C 8.423 21.699,7.449 21.389,6.472 21.552 M19.507 21.545 C 19.086 21.621,18.744 21.755,18.398 21.979 C 17.090 22.824,16.636 24.485,17.335 25.871 C 17.526 26.248,18.015 26.785,18.383 27.021 C 19.358 27.646,20.678 27.641,21.632 27.008 C 22.254 26.595,22.784 25.827,22.928 25.131 C 23.301 23.330,22.005 21.634,20.171 21.524 C 19.945 21.510,19.646 21.520,19.507 21.545 M13.085 22.086 C 12.482 22.142,11.753 22.425,11.360 22.755 C 11.159 22.924,10.989 23.261,10.988 23.493 C 10.987 23.788,11.220 24.189,11.480 24.342 C 11.829 24.546,12.166 24.532,12.642 24.292 C 13.271 23.975,13.818 23.992,14.488 24.348 C 15.320 24.791,16.197 24.098,15.946 23.195 C 15.798 22.662,14.778 22.137,13.760 22.071 C 13.599 22.060,13.295 22.067,13.085 22.086 M7.469 23.628 C 7.585 23.687,7.746 23.835,7.827 23.957 C 8.026 24.259,8.032 24.732,7.841 25.020 C 7.555 25.449,7.058 25.601,6.602 25.399 C 6.165 25.206,5.952 24.760,6.049 24.242 C 6.092 24.016,6.359 23.693,6.586 23.594 C 6.828 23.489,7.226 23.504,7.469 23.628 M20.552 23.682 C 20.819 23.865,20.975 24.167,20.975 24.502 C 20.975 25.066,20.555 25.493,20.000 25.493 C 19.230 25.493,18.769 24.659,19.164 23.984 C 19.355 23.658,19.655 23.507,20.062 23.533 C 20.270 23.547,20.422 23.593,20.552 23.682 " fill="#1A1C1F" stroke="none" fill-rule="evenodd"></path></svg>
